X: 20822
T: The Lovely Lass of Monorgon
%R: air, reel
B: James Oswald "The Caledonian Pocket Companion" v.2 p.82 #2
Z: 2019 John Chambers <jc:trillian.mit.edu>
M: C
L: 1/8
K: A
"_slow"(AB) |\
c2(Tfe) (dc)(BA) | (Bc)(ec) B2(AB) |\
c2TBA F2AF | (EF)(AB) A2 :: (cd) |\
e3f ecTBA | TBABc e3f |
a3g f2(ec) | (Bc)(f=g) f3e |\
e2(f^g) (af)(af) | (ec)(ec) B2(ce) |\
(fe)(cB) (A>B)cE | F2(A>B) A2 :: (AB) |
(ce)(fe) (ag)(fe) | (dc)(BA) B2ab |\
c'2Tba (fa)(ec) | (Bd)(cB) A2 :: (c>d) |\
e>fec e2ac | (d/c/B/A/) Bc e2(fg) |
(ag)(fe) (ag)(fe) | (TcB)(ce) f3e |\
a>bc'b (a<f)(a<f) | (e/c/B/)c/ ac B2(ce) |\
f2(af) (e/c/B/)c/ (A/>B/c/)E/ | F2(A>B) A2 :|


